images/companyLogos/tp.svg

<svg width="518" height="470" viewBox="0 0 518 470" fill="none" xmlns="http://www.w3.org/2000/svg">
<path d="M95.4417 1.85012C97.9017 1.36011 100.402 1.04012 102.912 1.00012C184.282 1.00012 265.662 1.00012 347.032 1.00012C371.912 0.490117 397.172 4.16012 420.202 13.8501C424.032 15.7501 428.952 16.9001 430.952 21.1001C432.312 24.9401 429.222 28.2801 426.532 30.5701C409.752 46.7701 393.122 63.1301 376.362 79.3501C367.332 86.7101 355.862 91.6701 344.072 91.3901C326.052 91.3601 308.032 91.3901 290.012 91.3701C285.262 91.3401 280.272 92.3701 276.522 95.4501C273.122 98.2101 271.342 102.66 271.492 106.99C271.522 127.34 271.502 147.69 271.502 168.04C271.422 174.52 269.952 181.48 265.282 186.27C241.552 209.89 217.372 233.04 193.292 256.29C189.992 259.35 185.562 261.7 180.962 261.37C178.422 261.02 177.802 258.19 177.942 256.06C177.942 206.34 177.932 156.62 177.942 106.89C178.062 102.48 176.352 97.9201 172.882 95.1001C169.582 92.4401 165.232 91.4401 161.072 91.3701C109.722 91.3701 58.3717 91.3901 7.03172 91.3701C4.23172 91.3401 0.511722 90.1301 0.0117222 86.9601C-0.168278 83.8401 1.75172 81.0301 3.91172 78.9601C26.6317 57.0101 49.2617 34.9801 71.9917 13.0401C78.7117 7.45012 86.9017 3.64011 95.4417 1.85012Z" fill="url(#paint0_linear_150_181)"/>
<path d="M449.472 38.65C454.432 37.17 459.792 38.42 464.242 40.85C470.952 44.45 475.932 50.37 480.872 56C503.612 83.17 518.332 118.18 516.942 153.99C515.722 191.92 499.282 229.43 471.012 254.97C444.822 279 410.252 291.94 375.502 297.16C345.702 302.03 315.442 299.84 285.402 300.45C277.832 300.79 271.772 307.63 271.592 315.07C271.532 331.71 271.582 348.36 271.562 365C271.522 370.71 271.962 376.57 270.162 382.09C267.072 392.12 259.972 400.36 252.002 406.93C230.962 426.94 210.212 447.27 189.102 467.2C185.512 470.96 177.872 468.61 178.022 463.09C177.962 414.41 178.032 365.73 177.992 317.04C177.602 305.21 183.642 294.06 191.652 285.71C210.792 267.16 229.912 248.6 249.052 230.05C253.202 226.18 256.882 221.72 261.772 218.72C271.282 212.62 282.692 209.41 293.992 209.81C316.682 209.82 339.362 209.8 362.052 209.82C377.682 209.58 393.722 204.25 404.882 192.98C411.282 186.59 416.262 178.8 419.682 170.45C423.962 157.34 424.072 142.69 419.052 129.77C415.322 120.11 408.722 111.74 400.702 105.27C397.792 102.83 394.082 100.92 392.592 97.2101C391.362 94.5601 392.342 91.38 394.452 89.47C408.972 75.35 423.532 61.26 438.062 47.15C441.552 43.96 444.602 39.77 449.472 38.65Z" fill="url(#paint1_linear_150_181)"/>
<defs>
<linearGradient id="paint0_linear_150_181" x1="93.8421" y1="191.831" x2="252.191" y2="-50.1443" gradientUnits="userSpaceOnUse">
<stop stop-color="#147CD1"/>
<stop offset="1" stop-color="#01B6D9"/>
</linearGradient>
<linearGradient id="paint1_linear_150_181" x1="251.749" y1="353.899" x2="523.65" y2="156.52" gradientUnits="userSpaceOnUse">
<stop stop-color="#147CD1"/>
<stop offset="1" stop-color="#01B6D9"/>
</linearGradient>
</defs>
</svg>

<svg fill="none" xmlns="http://www.w3.org/2000/svg" viewBox="0 0 518 470">
  <path
    d="M95.442 1.85c2.46-.49 4.96-.81 7.47-.85h244.12c24.88-.51 50.14 3.16 73.17 12.85 3.83 1.9 8.75 3.05 10.75 7.25 1.36 3.84-1.73 7.18-4.42 9.47-16.78 16.2-33.41 32.56-50.17 48.78-9.03 7.36-20.5 12.32-32.29 12.04-18.02-.03-36.04 0-54.06-.02-4.75-.03-9.74 1-13.49 4.08-3.4 2.76-5.18 7.21-5.03 11.54.03 20.35.01 40.7.01 61.05-.08 6.48-1.55 13.44-6.22 18.23-23.73 23.62-47.91 46.77-71.99 70.02-3.3 3.06-7.73 5.41-12.33 5.08-2.54-.35-3.16-3.18-3.02-5.31 0-49.72-.01-99.44 0-149.17.12-4.41-1.59-8.97-5.06-11.79-3.3-2.66-7.65-3.66-11.81-3.73-51.35 0-102.7.02-154.04 0-2.8-.03-6.52-1.24-7.02-4.41-.18-3.12 1.74-5.93 3.9-8 22.72-21.95 45.35-43.98 68.08-65.92 6.72-5.59 14.91-9.4 23.45-11.19Z"
    fill="url(#a)"
  />
  <path
    d="M449.472 38.65c4.96-1.48 10.32-.23 14.77 2.2 6.71 3.6 11.69 9.52 16.63 15.15 22.74 27.17 37.46 62.18 36.07 97.99-1.22 37.93-17.66 75.44-45.93 100.98-26.19 24.03-60.76 36.97-95.51 42.19-29.8 4.87-60.06 2.68-90.1 3.29-7.57.34-13.63 7.18-13.81 14.62-.06 16.64-.01 33.29-.03 49.93-.04 5.71.4 11.57-1.4 17.09-3.09 10.03-10.19 18.27-18.16 24.84-21.04 20.01-41.79 40.34-62.9 60.27-3.59 3.76-11.23 1.41-11.08-4.11-.06-48.68.01-97.36-.03-146.05-.39-11.83 5.65-22.98 13.66-31.33 19.14-18.55 38.26-37.11 57.4-55.66 4.15-3.87 7.83-8.33 12.72-11.33 9.51-6.1 20.92-9.31 32.22-8.91 22.69.01 45.37-.01 68.06.01 15.63-.24 31.67-5.57 42.83-16.84 6.4-6.39 11.38-14.18 14.8-22.53 4.28-13.11 4.39-27.76-.63-40.68-3.73-9.66-10.33-18.03-18.35-24.5-2.91-2.44-6.62-4.35-8.11-8.06-1.23-2.65-.25-5.83 1.86-7.74 14.52-14.12 29.08-28.21 43.61-42.32 3.49-3.19 6.54-7.38 11.41-8.5Z"
    fill="url(#b)"
  />
  <defs>
    <linearGradient
      id="a"
      x1="93.842"
      y1="191.831"
      x2="252.191"
      y2="-50.144"
      gradientUnits="userSpaceOnUse"
    >
      <stop stop-color="#147CD1" />
      <stop offset="1" stop-color="#01B6D9" />
    </linearGradient>
    <linearGradient
      id="b"
      x1="251.749"
      y1="353.899"
      x2="523.65"
      y2="156.52"
      gradientUnits="userSpaceOnUse"
    >
      <stop stop-color="#147CD1" />
      <stop offset="1" stop-color="#01B6D9" />
    </linearGradient>
  </defs>
</svg>
